img/toolbar.svg

<?xml version="1.0" encoding="UTF-8" standalone="no"?>
<svg width="24px" height="120px" viewBox="0 0 24 120" version="1.1" xmlns="http://www.w3.org/2000/svg" xmlns:xlink="http://www.w3.org/1999/xlink" xmlns:sketch="http://www.bohemiancoding.com/sketch/ns">
    <title>Slice 1</title>
    <description>Created with Sketch (http://www.bohemiancoding.com/sketch)</description>
    <defs></defs>
    <g id="Page 1" stroke="none" stroke-width="1" fill="none" fill-rule="evenodd">
        <path d="M18.29,11.48 C18.32,11.27 18.33,11.04 18.33,10.82 C18.33,8.16 16.25,6 13.67,6 C11.62,6 9.88,7.36 9.25,9.26 C8.93,9.17 8.6,9.14 8.25,9.12 C5.72,8.95 4.5,9.8 4.5,13.029 C4.5,13.24 4.51,13.439 4.55,13.63 C3.66,13.85 3,14.67 3,15.641 C3,16.779 4.14,18 5.25,18 L17.96,17.96 C19.62,17.96 21,16.471 21,14.74 C21,13.12 19.811,11.63 18.29,11.48 L18.29,11.48 Z M15,13 L14,13 L14.226,12 L13,12 L13,15.899 L14,16.124 L14,17 L10,17 L10,16.124 L11,15.883 L11,12 L9.726,12 L10,13 L9,13 L9,11 L15,11 L15,13 L15,13 Z M15,13" id="Shape" fill="#BBBBBB"></path>
        <path d="M18.29,35.48 C18.32,35.27 18.33,35.04 18.33,34.82 C18.33,32.16 16.25,30 13.67,30 C11.62,30 9.88,31.36 9.25,33.26 C8.93,33.17 8.6,33.14 8.25,33.12 C5.72,32.95 4.5,33.8 4.5,37.029 C4.5,37.24 4.51,37.439 4.55,37.63 C3.66,37.85 3,38.67 3,39.641 C3,40.779 4.14,42 5.25,42 L17.96,41.96 C19.62,41.96 21,40.471 21,38.74 C21,37.12 19.811,35.63 18.29,35.48 L18.29,35.48 Z M15,37 L14,37 L14.226,36 L13,36 L13,39.899 L14,40.124 L14,41 L10,41 L10,40.124 L11,39.883 L11,36 L9.726,36 L10,37 L9,37 L9,35 L15,35 L15,37 L15,37 Z M15,37" id="Shape" fill="#91CC41"></path>
        <path d="M18.29,59.48 C18.32,59.27 18.33,59.04 18.33,58.82 C18.33,56.16 16.25,54 13.67,54 C11.62,54 9.88,55.36 9.25,57.26 C8.93,57.17 8.6,57.14 8.25,57.12 C5.72,56.95 4.5,57.8 4.5,61.029 C4.5,61.24 4.51,61.439 4.55,61.63 C3.66,61.85 3,62.67 3,63.641 C3,64.779 4.14,66 5.25,66 L17.96,65.96 C19.62,65.96 21,64.471 21,62.74 C21,61.12 19.811,59.63 18.29,59.48 L18.29,59.48 Z M15,61 L14,61 L14.226,60 L13,60 L13,63.899 L14,64.124 L14,65 L10,65 L10,64.124 L11,63.883 L11,60 L9.726,60 L10,61 L9,61 L9,59 L15,59 L15,61 L15,61 Z M15,61" id="Shape" fill="#78B2F2"></path>
        <path d="M18.29,83.48 C18.32,83.27 18.33,83.04 18.33,82.82 C18.33,80.16 16.25,78 13.67,78 C11.62,78 9.88,79.36 9.25,81.26 C8.93,81.17 8.6,81.14 8.25,81.12 C5.72,80.95 4.5,81.8 4.5,85.029 C4.5,85.24 4.51,85.439 4.55,85.63 C3.66,85.85 3,86.67 3,87.641 C3,88.779 4.14,90 5.25,90 L17.96,89.96 C19.62,89.96 21,88.471 21,86.74 C21,85.12 19.811,83.63 18.29,83.48 L18.29,83.48 Z M15,85 L14,85 L14.226,84 L13,84 L13,87.899 L14,88.124 L14,89 L10,89 L10,88.124 L11,87.883 L11,84 L9.726,84 L10,85 L9,85 L9,83 L15,83 L15,85 L15,85 Z M15,85" id="Shape" fill="#E3B551"></path>
        <path d="M18.33,106.82 C18.33,104.16 16.25,102 13.67,102 C11.62,102 9.88,103.36 9.25,105.26 C8.93,105.17 8.6,105.14 8.25,105.12 C5.72,104.95 4.5,105.8 4.5,109.029 C4.5,109.24 4.51,109.439 4.55,109.63 C3.66,109.85 3,110.67 3,111.641 C3,112.779 4.14,114 5.25,114 L17.96,113.96 C19.62,113.96 21,112.471 21,110.74 C21,109.12 19.811,107.63 18.29,107.48 C18.32,107.27 18.33,107.04 18.33,106.82 Z M15,109 L14,109 L14.226,108 L13,108 L13,111.899 L14,112.124 L14,113 L10,113 L10,112.124 L11,111.883 L11,108 L9.726,108 L10,109 L9,109 L9,107 L15,107 L15,109 L15,109 Z M15,109" id="Shape" fill="#F74687"></path>
    </g>
</svg>

<svg xmlns="http://www.w3.org/2000/svg" version="1.1" width="24px" height="120px" viewBox="0 0 24 120"><path fill="#BBBBBB" d="M18.29 11.48c0.03-0.21 0.04-0.44 0.04-0.66 0-2.66-2.08-4.82-4.66-4.82 -2.05 0-3.79 1.36-4.42 3.26 -0.32-0.09-0.65-0.12-1-0.14C5.72 8.95 4.5 9.8 4.5 13.03c0 0.21 0.01 0.41 0.05 0.6C3.66 13.85 3 14.67 3 15.64 3 16.78 4.14 18 5.25 18l12.71-0.04c1.66 0 3.04-1.49 3.04-3.22C21 13.12 19.81 11.63 18.29 11.48L18.29 11.48zM15 13h-1l0.23-1H13v3.9l1 0.23V17h-4v-0.88l1-0.24V12H9.73L10 13H9v-2h6V13L15 13z"/><path fill="#91CC41" d="M18.29 35.48c0.03-0.21 0.04-0.44 0.04-0.66 0-2.66-2.08-4.82-4.66-4.82 -2.05 0-3.79 1.36-4.42 3.26 -0.32-0.09-0.65-0.12-1-0.14C5.72 32.95 4.5 33.8 4.5 37.03c0 0.21 0.01 0.41 0.05 0.6C3.66 37.85 3 38.67 3 39.64 3 40.78 4.14 42 5.25 42l12.71-0.04c1.66 0 3.04-1.49 3.04-3.22C21 37.12 19.81 35.63 18.29 35.48L18.29 35.48zM15 37h-1l0.23-1H13v3.9l1 0.23V41h-4v-0.88l1-0.24V36H9.73L10 37H9v-2h6V37L15 37z"/><path fill="#78B2F2" d="M18.29 59.48c0.03-0.21 0.04-0.44 0.04-0.66 0-2.66-2.08-4.82-4.66-4.82 -2.05 0-3.79 1.36-4.42 3.26 -0.32-0.09-0.65-0.12-1-0.14C5.72 56.95 4.5 57.8 4.5 61.03c0 0.21 0.01 0.41 0.05 0.6C3.66 61.85 3 62.67 3 63.64 3 64.78 4.14 66 5.25 66l12.71-0.04c1.66 0 3.04-1.49 3.04-3.22C21 61.12 19.81 59.63 18.29 59.48L18.29 59.48zM15 61h-1l0.23-1H13v3.9l1 0.23V65h-4v-0.88l1-0.24V60H9.73L10 61H9v-2h6V61L15 61z"/><path fill="#E3B551" d="M18.29 83.48c0.03-0.21 0.04-0.44 0.04-0.66 0-2.66-2.08-4.82-4.66-4.82 -2.05 0-3.79 1.36-4.42 3.26 -0.32-0.09-0.65-0.12-1-0.14C5.72 80.95 4.5 81.8 4.5 85.03c0 0.21 0.01 0.41 0.05 0.6C3.66 85.85 3 86.67 3 87.64 3 88.78 4.14 90 5.25 90l12.71-0.04c1.66 0 3.04-1.49 3.04-3.22C21 85.12 19.81 83.63 18.29 83.48L18.29 83.48zM15 85h-1l0.23-1H13v3.9l1 0.23V89h-4v-0.88l1-0.24V84H9.73L10 85H9v-2h6V85L15 85z"/><path fill="#F74687" d="M18.33 106.82c0-2.66-2.08-4.82-4.66-4.82 -2.05 0-3.79 1.36-4.42 3.26 -0.32-0.09-0.65-0.12-1-0.14 -2.53-0.17-3.75 0.68-3.75 3.91 0 0.21 0.01 0.41 0.05 0.6C3.66 109.85 3 110.67 3 111.64 3 112.78 4.14 114 5.25 114l12.71-0.04c1.66 0 3.04-1.49 3.04-3.22 0-1.62-1.19-3.11-2.71-3.26C18.32 107.27 18.33 107.04 18.33 106.82zM15 109h-1l0.23-1H13v3.9l1 0.23V113h-4v-0.88l1-0.24V108H9.73L10 109H9v-2h6V109L15 109z"/></svg>
